public/Group209.svg

<svg fill="none" height="106" viewBox="0 0 107 106" width="107" xmlns="http://www.w3.org/2000/svg" xmlns:xlink="http://www.w3.org/1999/xlink"><clipPath id="a"><path d="m0 0h34.7925v42.5242h-34.7925z" transform="matrix(.98325491 -.18223553 .18223553 .98325491 32.303 35.3324)"/></clipPath><rect fill="#f08a4b" height="90.1108" rx="16" transform="matrix(.98325491 -.18223553 .18223553 .98325491 -3.026203 .278069)" width="91.1233" y="16.606"/><g clip-path="url(#a)"><path d="m54.774 66.1389c-.7485-.689-1.1339-1.6522-.7191-2.7637l5.9846-16.8359c.4518-.9115 1.3409-1.697 2.3782-1.6824 2.0748.0294 4.09-1.3788 4.7566-3.3647.7925-2.4231-.4898-4.8756-2.9499-5.8681-1.3487-.5778-2.7862-.5183-3.9124.1043-.363.2742-.8373-.0517-1.1115-.4148-.6226-1.1262-1.6453-2.1782-2.9569-2.5559-2.4231-.7925-5.0756.5268-5.9052 2.7499-1.2667 2.0972-.6217 4.4608 1.0382 5.6016.7485.689 1.134 1.6522.7192 2.7638l-5.9846 16.8358c-.4519.9115-1.3409 1.6971-2.3783 1.6824-2.0747-.0293-4.09 1.3788-4.7566 3.3648-.7924 2.4231.4898 4.8755 2.95 5.868 1.3487.5778 2.7862.5183 3.9123-.1043.7632-.3483 1.2004-.2224 1.5117.3407.6226 1.1261 1.6453 2.1782 2.9569 2.5559 2.4231.7925 5.0756-.5269 5.9051-2.7499.8667-2.023.2217-4.3866-1.4383-5.5275z" fill="#fff"/></g></svg>

<svg width="107" height="106" viewBox="0 0 107 106" fill="none" xmlns="http://www.w3.org/2000/svg">
<rect y="16.606" width="91.1233" height="90.1108" rx="16" transform="rotate(-10.5 0 16.606)" fill="#F08A4B"/>
<g clip-path="url(#clip0_85_46)">
<path d="M54.774 66.1389C54.0255 65.4499 53.6401 64.4867 54.0549 63.3752L60.0395 46.5393C60.4913 45.6278 61.3804 44.8423 62.4177 44.8569C64.4925 44.8863 66.5077 43.4781 67.1743 41.4922C67.9668 39.0691 66.6845 36.6166 64.2244 35.6241C62.8757 35.0463 61.4382 35.1058 60.312 35.7284C59.949 36.0026 59.4747 35.6767 59.2005 35.3136C58.5779 34.1874 57.5552 33.1354 56.2436 32.7577C53.8205 31.9652 51.168 33.2845 50.3384 35.5076C49.0717 37.6048 49.7167 39.9684 51.3766 41.1092C52.1251 41.7982 52.5106 42.7614 52.0958 43.873L46.1112 60.7088C45.6593 61.6203 44.7703 62.4059 43.7329 62.3912C41.6582 62.3619 39.6429 63.77 38.9763 65.756C38.1839 68.1791 39.4661 70.6315 41.9263 71.624C43.275 72.2018 44.7125 72.1423 45.8386 71.5197C46.6018 71.1714 47.039 71.2973 47.3503 71.8604C47.9729 72.9865 48.9956 74.0386 50.3072 74.4163C52.7303 75.2088 55.3828 73.8894 56.2123 71.6664C57.079 69.6434 56.434 67.2798 54.774 66.1389Z" fill="white"/>
</g>
<defs>
<clipPath id="clip0_85_46">
<rect width="34.7925" height="42.5242" fill="white" transform="translate(32.303 35.3324) rotate(-10.5)"/>
</clipPath>
</defs>
</svg>
